X:1
T:Title
%%score ( 1 2 ) { ( 3 5 ) | 4 }
L:1/8
Q:1/4=100
M:4/4
K:F
V:1 treble nm="Bright Piano"
V:2 treble 
V:3 bass nm="Bright Piano"
V:5 bass 
V:4 bass 
V:1
 [A,C]2 [CF]2 [CA]2 [CF]2 | [B,E]4 [B,D]4 | [B,D]2 [DG]2 [DB]2 [DG]2 | F4 E4 | %4
w: Friedrich~Eckhardt * * *||||
 [CF]2 [CA]2 [Cc]2 [CF]2 | d4 c2 [DB]2 | [CA]2 GA [CB]2 [CG]2 | [CA]8 | [FA]2 [EG]2 [EG]2 [DF]2 | %9
w: |||||
 [DF]4 [^CE]4 | [GB]2 [FA]2 [FA]2 [EG]2 | [EG]4 [DF]4 | [DF]2 [DE]2 [DF]2 [DE]2 | %13
w: ||||
 [^CE]4 [DA]2 [DG]2 | [CF]2 [CF]2 [CG]2 [CG]2 | A2- [^CA-]2 [DA]4 | [DA]2 [DG]2 [Dd]2 [Ed]2 | %17
w: ||||
 d2 c2 A2 [CF]2 | [B,F]2 [B,E]2 [B,A]2 [CG]2 | [CF]8 |] %20
w: |||
V:2
 x8 | x8 | x8 | C8 | x8 | D6 z2 | z2 C2 z4 | x8 | x8 | x8 | x8 | x8 | x8 | x8 | x8 | C2 z2 z4 | %16
 x8 | F6 z2 | x8 | x8 |] %20
V:3
 F,2 A,2 F,2 F,2 | F,4 F,4 | G,2 B,2 F,2 G,2 | G,8 | F,2 F,2 F,2 F,2 | F,2 ^F,2 G,2 D,2 | %6
 F,2 E,F, G,2 E,2 | F,8 | D,2 G,2 A,2 A,2 | A,2 F,G, A,4 | A,2 A,2 A,2 A,2 | z4 A,4 | %12
 _A,2 A,2 A,2 A,2 | A,6 B,2 | A,2 F,2 F,2 E,2 | F,2 G,2 F,4 | G,2 G,2 G,2 _A,2 | A,4 C2 A,2 | %18
 G,2 G,2 E,2 E,B, | A,8 |] %20
V:4
 F,,2 F,,2 F,,2 A,,2 | B,,4 B,,4 | G,,2 G,,2 G,,2 B,,2 | C,6 z2 | A,,2 F,,2 A,,2 A,,2 | B,,6 B,,2 | %6
 C,2 C,2 C,2 C,2 | F,,8 | z2 D,2 D,2 D,2 | A,,4 A,,4 | A,,2 A,,2 A,,2 ^C,2 | D,6 z2 | %12
 B,,2 B,,2 B,,2 B,,2 | A,,2 G,,2 F,,2 B,,2 | C,2 A,,2 B,,2 C,2 | z2 E,2 D,2 C,2 | %16
 B,,2 B,,2 =B,,2 B,,2 | C,6 C,2 | C,2 C,2 C,2 C,2 | F,,8 |] %20
V:5
 x8 | x8 | x8 | z4 z2 B,,2 | x8 | x8 | x8 | x8 | x8 | x8 | x8 | A,2 B,A, z2 C,2 | x8 | x8 | x8 | %15
 x8 | x8 | x8 | x8 | x8 |] %20

